X:1
T:Salve Regina - Anerio
T:#
%%score [ 1 2 3 4 ]
L:1/8
Q:1/4=100
M:none
K:C
V:1 treble nm="Soprano" snm="S"
V:2 treble nm="Alto" snm="A"
V:3 treble-8 nm="Tenor" snm="T"
V:4 bass nm="Bass" snm="B"
V:1
 A2 G2 A2 D4 ||[Q:1/4=200] z8"^Salve Regina""^Felice Anerio\n(c. 1560-1614)" A8- | A8 (G8 | %3
w: Sal\- * * ve|Re\-|* gi\-|
 F8) E8 | G8 A8 | c4 c8 B4 |[M:4/2][Q:1/4=200][Q:1/4=200][Q:1/4=200][Q:1/4=200] A12 A4 | A8 z4 A4 | %8
w: * na,|ma- ter|mi- se- ri-|cor- di-|ae, vi-|
 A4 F4 _B8 | A8 z4 c4- | c4 B4 G4 A4 | B8 A8 | z4 A4 c4 c4 | c8 B8 | z16 | z4 d8 c4 | B8 A6 F2 | %17
w: ta, dul- ce-|do, et|* spes no- stra|sal- ve.|Ad te cla-|ma- mus||e- xu-|les fi- li-|
 G8 F8 | E8 z4 ^F4- | F2 ^F2 G2 A2 G8 | G4 G4 ^G8 | ^G4 A4 ^F8 | ^F4 G4 G8 | z16 | z8 z4 d4- | %25
w: i E-|vae. Ad|* te su- spi- ra-|mus ge- men-|tes et flen-|tes in hac||la\-|
 d4 c4 _B4 A4 | _B8 A8 | ^F6 F2 F4 G4 | z8 z4 A2 A2 | B2 ^c2 d2 A2 A6 =c2 | c8 c4 c4 | %31
w: * cry- ma- rum|val- le.|E- ia er- go|ad- vo-|ca- ta no- stra il- los|tu- os mi-|
 B6 G2 A4 G4 | G6 G2 G4 d4 | B4 A4 (^G2 ^FG A4- | A4 ^G4) A8 | z8 A8 | _B8 A8 | A6 A2 A4 G4 | %38
w: se- ri- cor- des|o- cu- los ad|nos con- ver\- * * *|* * te.|Et|Je- sum|be- ne- di- ctum|
 G8 G4 G4- | G4 G4 A8 | A8 c8 | B4 A4 G4 ^F4 | G6 G2 A4 A4 | _B8 A8 | ^F8 G8 | ^F8 z4 A4 | %46
w: fru- ctum ven\-|* tris tu-|i, no-|bis post hoc ex-|i- li- um o-|sten- de.|O cle-|mens, O|
 d8 ^c8 ||[M:3/1][Q:1/4=400] ^c8 d8 B8 | =c16 B8 | %49
w: pi- a,|O dul- cis|Vir- go|
[M:3/1][Q:1/4=400][Q:1/4=400][Q:1/4=400][Q:1/4=400] A8 (^G6 ^F2 G8) | A16 z8 | %51
w: Ma- ri\- * *|a,|
[Q:1/4=396] A8[Q:1/4=389] d8[Q:1/4=382] c8 |[Q:1/4=372] c16[Q:1/4=362] c8 | %53
w: O dul- cis|Vir- go|
[Q:1/4=355] A8[Q:1/4=346] A16 |[Q:1/4=340] ^F16 |] %55
w: Ma- ri-|a.|
V:2
 x8 x2 || D16 | (C8 _B,8) | A,8 C8 | D8 F4 F4- | F4 E4 D8 |[M:4/2] ^C4 (D6 C2 C2 B,C | D8) F8 | %8
w: |Re-|gi\- *|na, ma-|ter mi- se\-|* ri- cor-|di- ae, * * * *|* vi-|
 E4 D8 G4 | F4 F8 E4 | C4 D4 E8 | D4 D4 F4 F4 | F8 (E2 D2 C2 B,2 | A,8) z4 E4- | E4 D4 C4 B,2 C2 | %15
w: ta, dul- ce-|do, et spes|no- stra sal-|ve. Ad te cla-|ma- mus * * *|* e\-|* xu- les fi- li-|
 A,8 E8 | E4 G6 F2 F4- | F4 (E6 D2 D4-) | (D2 ^CB, C4) D8 | z4 D6 D2 E2 D2 | E4 E2 E2 E8 | %21
w: i E-|vae, fi- li- i|* E\- * *|* * * * vae.|Ad te su- spi-|ra- mus ge- men-|
 E4 E4 D8 | D4 D4 E8 | z4 F8 E4 | D4 ^C4 (D6 E2 | F4) (E2 DC D8- | D4) G8 ^F4 | z4 D2 D2 D4 B,4 | %28
w: tes et flen-|tes in hac|la- cry-|ma- rum val\- *|* le, * * *|* val- le.|E- ia er- go|
 z8 G2 G2 F2 F2 | E4 D4 D6 E2 | F8 F8 | G8 F4 D4 | E4 D4 E2 E2 A,4 | E4 C2 D2 E8- | E8 ^C8 | %35
w: ad- vo- ca- ta|no- stra il- los|tu- os|mi- se- ri-|cor- des o- cu- los|ad nos con- ver\-|* te.|
 z8 F8 | F8 F8 | F6 F2 F4 D4 | E8 E4 D4- | D4 E4 F8 | E8 z4 C4 | D4 F4 E4 D4 | E6 E2 E4 ^F4 | %43
w: Et|Je- sum|be- ne- di- ctum|fru- ctum ven\-|* tris tu-|i, no-|bis post hoc ex-|i- li- um o-|
 G8 ^F8 | z4 D8 ^C4 | D8 E4 (F4- | F4 E2 D2 E4) E4 ||[M:3/1] E8 A,8 G,8 | G16 G8 |[M:3/1] E8 E16 | %50
w: sten- de.|O cle-|mens, O pi\-|* * * * a,|O dul- cis|Vir- go|Ma- ri-|
 ^C16 z8 | F8 D8 E8 | F8 F8 E8 | (D16 ^C8) | D16 |] %55
w: a,|O dul- cis|Vir- go Ma-|ri\- *|a.|
V:3
 x8 x2 || z8 A8- | A8 d8 | d8 z4 (c4- | c2 B2 B4) A8- | A4 G4 G8- | %6
w: |Re\-|* gi-|na, ma\-|* * * ter|* mi- se\-|
[M:4/2][K:treble-8] G4 F4 E4 E4 | ^F8 z4 d4 | A4 _B4 G8 | D4 d8 c4 | A4 B4 c8 | G8 z8 | D8 A4 A4 | %13
w: * ri- cor- di-|ae, vi-|ta, dul- ce-|do, et spes|no- stra sal-|ve.|Ad te cla-|
 e8 E8 | A12 G4 | F8 (E6 F2 | G4) E4 F8 | (C8 D8) | A8 z4 A4- | A2 A2 B2 A2 B8 | c4 c4 B8 | %21
w: ma- mus|e- xu-|les fi\- *|* li- i|E\- *|vae. Ad|* te su- spi- ra-|mus ge- men-|
 B4 c4 A8 | A4 B4 c4 c4- | c4 _B4 (A6 GF) | G4 A4 F4 G4 | A6 A2 G4 ^F4 | G8 D8 | A6 A2 A4 d4 | %28
w: tes et flen-|tes in hac la\-|* cry- ma\- * *|* rum val- le,|la- cry- ma- rum|val- le.|E- ia er- go|
 d2 d2 c2 c2 B4 A4 | z8 ^F6 G2 | A8 A8 | z4 e4 d4 B4 | c4 d4 G4 ^F4 | G4 A4 B4 c4 | B8 A8 | z8 d8 | %36
w: ad- vo- ca- ta no- stra|il- los|tu- os|mi- se- ri-|cor- des o- cu-|los ad nos con-|ver- te.|Et|
 d8 c8 | c6 c2 d4 B4 | c4 c8 B4- | B4 B4 d8 | ^c8 z4 A4 | G4 F4 c4 d4 | c6 c2 c4 A4 | G8 D8 | %44
w: Je- sum|be- ne- di- ctum|fru- ctum ven\-|* tris tu-|i, no-|bis post hoc ex-|i- li- um o-|sten- de.|
 A8 G8 | A8 A8 | _B8 A8 ||[M:3/1] A8 d8 d8 | e16 d8 |[M:3/1][K:treble-8] c8 B16 | A16 z8 | %51
w: O cle-|mens, O|pi- a,|O dul- cis|Vir- go|Ma- ri-|a,|
 A8 G8 G8 | A16 G8 | F8 E16 | D16 |] %55
w: O dul- cis|Vir- go|Ma- ri-|a.|
V:4
 x8 x2 || D,16 | (F,8 G,8) | D,8 A,8 | G,8 F,8 | C,8 G,,8 |[M:4/2] A,,12 A,,4 | D,16 | z16 | z16 | %10
w: |Re-|gi\- *|na, ma-|ter mi-|se- ri-|cor- di-|ae.|||
 z16 | z4 G,,4 D,4 D,4 | A,8 A,,8 | z4 A,8 G,4 | F,8 E,6 C,2 | D,8 A,,8 | E,8 z8 | z16 | %18
w: |Ad te cla-|ma- mus|e- xu-|les fi- li-|i E-|vae.||
 z8 z4 D,4- | D,2 D,2 G,2 ^F,2 G,8 | C,4 C,4 E,8 | E,4 A,,4 D,8 | D,4 G,,4 C,8 | D,12 C,4 | %24
w: Ad|* te su- spi- ra-|mus ge- men-|tes et flen-|tes in hac|la- cry-|
 _B,,4 A,,4 B,,8 | A,,8 z8 | z16 | D,6 D,2 D,4 G,,4 | D,2 D,2 E,2 F,2 G,4 D,4 | z8 D,6 C,2 | %30
w: ma- rum val-|le.||E- ia er- go|ad- vo- ca- ta no- stra|il- los|
 F,8 F,4 A,4 | G,4 E,4 F,4 G,4 | C,4 B,,4 C,4 D,4 | E,4 F,4 E,8- | E,8 A,,8- | A,,8 D,8 | %36
w: tu- os mi-|se- ri- cor- des|o- cu- los ad|nos con- ver\-|* te.|* Et|
 _B,,8 F,,8 | F,6 F,2 D,4 G,4 | C,8 C,4 G,4- | G,4 E,4 D,8 | A,,16 | z16 | z16 | z16 | D,8 E,8 | %45
w: Je- sum|be- ne- di- ctum|fru- ctum ven\-|* tris tu-|i.||||O cle-|
 D,8 z8 | z16 ||[M:3/1] A,8 ^F,8 G,8 | C,16 G,,8 |[M:3/1] A,,8 E,16 | A,,16 z8 | D,8 B,,8 C,8 | %52
w: mens,||O dul- cis|Vir- go|Ma- ri-|a,|O dul- cis|
 F,,16 C,8 | D,8 A,,16 | D,16 |] %55
w: Vir- go|Ma- ri-|a.|

